flags/km.svg

<svg width="512" height="512" viewBox="0 0 512 512" fill="none" xmlns="http://www.w3.org/2000/svg">
<path d="M0 384L256 320L512 384V512H0V384Z" fill="var(--flag-palette-blue, #0052b4)"/>
<path d="M0 256L256 192L512 256V384H0V256Z" fill="var(--flag-palette-bright-red, #d80027)"/>
<path d="M0 128L256 64L512 128V256H0V128Z" fill="var(--flag-palette-white, #eeeeee)"/>
<rect width="512" height="128" fill="var(--flag-palette-dark-yellow, #ffc635)"/>
<path d="M0 0V512L256 256L0 0Z" fill="var(--flag-palette-green, #6da544)"/>
<path d="M67.5248 255.259C67.5248 217.961 93.7378 186.802 128.742 179.158C123.362 177.983 117.78 177.346 112.046 177.346C69.0148 177.346 34.1328 212.228 34.1328 255.259C34.1328 298.29 69.0148 333.172 112.046 333.172C117.779 333.172 123.361 332.535 128.742 331.36C93.7378 323.715 67.5248 292.557 67.5248 255.259Z" fill="var(--flag-palette-white, #eeeeee)"/>
<path d="M127.883 188.476L132.028 201.23H145.438L134.588 209.113L138.733 221.867L127.883 213.985L117.033 221.867L121.178 209.113L110.328 201.23H123.738L127.883 188.476Z" fill="var(--flag-palette-white, #eeeeee)"/>
<path d="M127.883 221.867L132.028 234.622H145.438L134.588 242.504L138.733 255.259L127.883 247.376L117.033 255.259L121.178 242.504L110.328 234.622H123.738L127.883 221.867Z" fill="var(--flag-palette-white, #eeeeee)"/>
<path d="M127.883 255.259L132.028 268.013H145.438L134.588 275.896L138.733 288.65L127.883 280.767L117.033 288.65L121.178 275.896L110.328 268.013H123.738L127.883 255.259Z" fill="var(--flag-palette-white, #eeeeee)"/>
<path d="M127.883 288.649L132.028 301.403H145.438L134.588 309.286L138.733 322.04L127.883 314.158L117.033 322.04L121.178 309.286L110.328 301.403H123.738L127.883 288.649Z" fill="var(--flag-palette-white, #eeeeee)"/>
</svg>

<svg xmlns="http://www.w3.org/2000/svg" width="512" height="512" fill="none"><path fill="var(--flag-palette-blue, #0052b4)" d="m0 384 256-64 256 64v128H0z"/><path fill="var(--flag-palette-bright-red, #d80027)" d="m0 256 256-64 256 64v128H0z"/><path fill="var(--flag-palette-white, #eeeeee)" d="m0 128 256-64 256 64v128H0z"/><path fill="var(--flag-palette-dark-yellow, #ffc635)" d="M0 0h512v128H0z"/><path fill="var(--flag-palette-green, #6da544)" d="M0 0v512l256-256z"/><path fill="var(--flag-palette-white, #eeeeee)" d="M67.5 255.3a78 78 0 0 1 61.2-76.1q-8-1.8-16.7-1.9a78 78 0 1 0 16.7 154 78 78 0 0 1-61.2-76"/><path fill="var(--flag-palette-white, #eeeeee)" d="m127.9 188.5 4.1 12.7h13.4l-10.8 8 4.1 12.7-10.8-8-10.9 8 4.2-12.8-10.9-7.9h13.4zm0 33.4 4.1 12.7h13.4l-10.8 7.9 4.1 12.8-10.8-8-10.9 8 4.2-12.8-10.9-7.9h13.4zm0 33.4L132 268h13.4l-10.8 7.9 4.1 12.8-10.8-8-10.9 8 4.2-12.8-10.9-7.9h13.4z"/><path fill="var(--flag-palette-white, #eeeeee)" d="m127.9 288.6 4.1 12.8h13.4l-10.8 7.9 4.1 12.7-10.8-7.8L117 322l4.2-12.7-10.9-7.9h13.4z"/></svg>
